X: 7522
T: Cobbler's, The
R: polka
M: 2/4
K: Bminor
|:"Bm"dB bB|"D"de f/g/f/e/|"Bm"dB bB|"A"c/B/A/c/ ef/e/|
"Bm"dB bB|"D"de f>e|"Bm"de "D"f/e/d|"Bm" B2 B>c:|
|:"Bm"fe/f/ ba|"D"fe f>e|"Bm"dB bB|"A"c/B/A/c/ e2|
"Bm"fe/f/ ba|"D"fe f>e|"Bm"de "D"f/e/d|"Bm" B2 B2:|

